src/images/logo/logo.svg

<?xml version="1.0" encoding="UTF-8"?>
<!DOCTYPE svg PUBLIC "-//W3C//DTD SVG 1.1//EN" "http://www.w3.org/Graphics/SVG/1.1/DTD/svg11.dtd">
<svg  xmlns="http://www.w3.org/2000/svg" version="1.1" width="1600px" height="1600px" style="shape-rendering:geometricPrecision; text-rendering:geometricPrecision; image-rendering:optimizeQuality; fill-rule:evenodd; clip-rule:evenodd" xmlns:xlink="http://www.w3.org/1999/xlink">
<g><path style="opacity:1" fill="#f5f6f6" d="M -0.5,-0.5 C 532.833,-0.5 1066.17,-0.5 1599.5,-0.5C 1599.5,532.833 1599.5,1066.17 1599.5,1599.5C 1066.17,1599.5 532.833,1599.5 -0.5,1599.5C -0.5,1066.17 -0.5,532.833 -0.5,-0.5 Z"/></g>
<g><path style="opacity:1" fill="#34539d" d="M 1411.5,33.5 C 1408.83,33.8333 1406.17,34.1667 1403.5,34.5C 1402.83,34.5 1402.17,34.5 1401.5,34.5C 996.334,33.5001 591,33.1668 185.5,33.5C 188.305,32.6805 191.305,32.1805 194.5,32C 597.5,31.3333 1000.5,31.3333 1403.5,32C 1406.36,32.1829 1409.03,32.6829 1411.5,33.5 Z"/></g>
<g><path style="opacity:1" fill="#003592" d="M 185.5,33.5 C 591,33.1668 996.334,33.5001 1401.5,34.5C 999.5,34.3333 597.5,34.5 195.5,35C 196.025,35.6924 196.692,36.1924 197.5,36.5C 199.411,36.319 201.578,35.9857 204,35.5C 402.452,36.8294 600.952,37.4961 799.5,37.5C 998.048,37.4961 1196.55,36.8294 1395,35.5C 1397.74,36.2825 1400.41,36.6158 1403,36.5C 1403.83,36.3333 1404.67,36.1667 1405.5,36C 1404.58,35.7216 1403.92,35.2216 1403.5,34.5C 1406.17,34.1667 1408.83,33.8333 1411.5,33.5C 1470.16,39.6649 1514.66,67.9982 1545,118.5C 1556.39,139.772 1563.39,162.439 1566,186.5C 1566.67,594.833 1566.67,1003.17 1566,1411.5C 1558.06,1475.23 1525.56,1521.73 1468.5,1551C 1450.14,1559.62 1430.81,1564.62 1410.5,1566C 1002.5,1566.67 594.5,1566.67 186.5,1566C 138.223,1560.48 98.7232,1538.98 68,1501.5C 49.3858,1477.26 38.2191,1449.93 34.5,1419.5C 33.5088,1008.17 33.1754,596.839 33.5,185.5C 33.5,183.5 33.5,181.5 33.5,179.5C 34.7846,176.411 35.4512,173.078 35.5,169.5C 46.3576,119.964 73.3576,81.7976 116.5,55C 137.865,42.7396 160.865,35.5729 185.5,33.5 Z"/></g>
<g><path style="opacity:1" fill="#003597" d="M 1401.5,34.5 C 1402.17,34.5 1402.83,34.5 1403.5,34.5C 1403.92,35.2216 1404.58,35.7216 1405.5,36C 1404.67,36.1667 1403.83,36.3333 1403,36.5C 1400.41,36.6158 1397.74,36.2825 1395,35.5C 1196.55,36.8294 998.048,37.4961 799.5,37.5C 600.952,37.4961 402.452,36.8294 204,35.5C 201.578,35.9857 199.411,36.319 197.5,36.5C 196.692,36.1924 196.025,35.6924 195.5,35C 597.5,34.5 999.5,34.3333 1401.5,34.5 Z"/></g>
<g><path style="opacity:1" fill="#013496" d="M 191.5,37.5 C 196.739,38.8052 202.072,39.6385 207.5,40C 602.167,40.6667 996.833,40.6667 1391.5,40C 1397.07,39.062 1402.4,38.2287 1407.5,37.5C 1407.5,38.5 1407.5,39.5 1407.5,40.5C 1402.07,40.161 1396.74,40.661 1391.5,42C 996.833,42.6667 602.167,42.6667 207.5,42C 202.264,40.661 196.93,40.161 191.5,40.5C 191.5,39.5 191.5,38.5 191.5,37.5 Z"/></g>
<g><path style="opacity:1" fill="#7a95d0" d="M 35.5,169.5 C 35.4512,173.078 34.7846,176.411 33.5,179.5C 33.322,175.878 33.9886,172.544 35.5,169.5 Z"/></g>
<g><path style="opacity:1" fill="#003497" d="M 1557.5,191.5 C 1558.68,191.281 1559.68,191.614 1560.5,192.5C 1559.17,597.167 1559.17,1001.83 1560.5,1406.5C 1559.5,1407.83 1558.5,1407.83 1557.5,1406.5C 1558.83,1001.5 1558.83,596.5 1557.5,191.5 Z"/></g>
<g><path style="opacity:1" fill="#34529b" d="M 33.5,185.5 C 33.1754,596.839 33.5088,1008.17 34.5,1419.5C 33.2026,1414.38 32.3693,1409.05 32,1403.5C 31.3333,1000.5 31.3333,597.5 32,194.5C 32.1805,191.305 32.6805,188.305 33.5,185.5 Z"/></g>
<g><path style="opacity:1" fill="#013497" d="M 40.5,207.5 C 41.8333,404.499 42.5,601.832 42.5,799.5C 42.1667,996.833 41.8333,1194.17 41.5,1391.5C 40.5,996.834 40.1667,602.167 40.5,207.5 Z"/></g>
<g><path style="opacity:1" fill="#98add5" d="M 863.5,676.5 C 848.5,676.5 833.5,676.5 818.5,676.5C 818.405,678.786 817.738,680.786 816.5,682.5C 816.674,680.139 817.007,677.806 817.5,675.5C 833.009,675.17 848.342,675.504 863.5,676.5 Z"/></g>
<g><path style="opacity:1" fill="#12367a" d="M 1215.5,680.5 C 1214.57,679.432 1214.23,678.099 1214.5,676.5C 1195.17,676.5 1175.83,676.5 1156.5,676.5C 1170.66,675.504 1184.99,675.171 1199.5,675.5C 1199.83,670.167 1200.17,670.167 1200.5,675.5C 1205.08,675.923 1209.25,674.923 1213,672.5C 1215.02,674.769 1215.86,677.436 1215.5,680.5 Z"/></g>
<g><path style="opacity:1" fill="#0d3576" d="M 1417.5,676.5 C 1397.42,676.179 1377.42,676.513 1357.5,677.5C 1367.14,676.168 1377.14,675.501 1387.5,675.5C 1397.67,675.5 1407.67,675.834 1417.5,676.5 Z"/></g>
<g><path style="opacity:1" fill="#0e3682" d="M 394.5,679.5 C 413.996,678.338 433.662,678.171 453.5,679C 454.38,680.356 454.714,681.856 454.5,683.5C 455.833,683.5 457.167,683.5 458.5,683.5C 458.674,685.861 459.007,688.194 459.5,690.5C 458.5,690.5 457.5,690.5 456.5,690.5C 457.902,695.384 458.569,700.384 458.5,705.5C 456.372,697.319 454.372,688.985 452.5,680.5C 433.178,679.5 413.845,679.167 394.5,679.5 Z"/></g>
<g><path style="opacity:1" fill="#d1dff7" d="M 724.5,680.5 C 742.326,679.503 760.326,679.17 778.5,679.5C 778.737,680.791 778.404,681.791 777.5,682.5C 760.198,680.514 742.532,679.847 724.5,680.5 Z"/></g>
<g><path style="opacity:1" fill="#fcfdfd" d="M 281.5,737.5 C 281.42,740.781 282.087,743.781 283.5,746.5C 286.803,767.564 290.47,788.564 294.5,809.5C 294.294,812.495 294.96,815.162 296.5,817.5C 296.34,819.199 296.506,820.866 297,822.5C 329.996,775.175 362.496,727.509 394.5,679.5C 413.845,679.167 433.178,679.5 452.5,680.5C 454.372,688.985 456.372,697.319 458.5,705.5C 467.159,746.944 476.325,788.277 486,829.5C 497.784,779.649 510.284,729.982 523.5,680.5C 541.154,679.5 558.821,679.167 576.5,679.5C 579.508,691.519 582.508,703.519 585.5,715.5C 585.41,718.152 586.076,720.485 587.5,722.5C 595.5,754.501 603.5,786.501 611.5,818.5C 611.41,821.152 612.076,823.485 613.5,825.5C 613.81,826.738 614.31,826.738 615,825.5C 651.301,777.03 687.801,728.697 724.5,680.5C 742.532,679.847 760.198,680.514 777.5,682.5C 773.04,702.547 768.373,722.547 763.5,742.5C 761.84,748.385 760.174,754.385 758.5,760.5C 757.957,760.56 757.624,760.893 757.5,761.5C 783.18,761.838 808.513,762.838 833.5,764.5C 830.234,777.8 827.068,791.133 824,804.5C 821.281,805.444 818.448,805.777 815.5,805.5C 792.831,805.333 770.164,805.5 747.5,806C 745.583,809.587 744.583,813.42 744.5,817.5C 738.759,838.39 733.426,859.39 728.5,880.5C 714.5,880.5 700.5,880.5 686.5,880.5C 686.5,879.5 686.5,878.5 686.5,877.5C 696.658,836.531 706.491,795.531 716,754.5C 685.335,796.659 654.502,838.659 623.5,880.5C 607.833,880.5 592.167,880.5 576.5,880.5C 576.768,878.901 576.434,877.568 575.5,876.5C 566.305,836.751 556.805,797.084 547,757.5C 536.518,798.442 526.351,839.442 516.5,880.5C 493.5,880.5 470.5,880.5 447.5,880.5C 445.095,865.523 442.761,850.523 440.5,835.5C 407.165,835.333 373.832,835.5 340.5,836C 329.921,850.491 319.587,865.158 309.5,880C 292.823,880.833 276.157,880.666 259.5,879.5C 249.315,822.425 238.649,765.425 227.5,708.5C 212.395,704.132 197.062,700.799 181.5,698.5C 182.742,691.796 184.076,685.13 185.5,678.5C 214.162,679.143 242.829,679.476 271.5,679.5C 274.192,698.938 277.526,718.271 281.5,737.5 Z"/></g>
<g><path style="opacity:1" fill="#718abd" d="M 585.5,715.5 C 586.924,717.515 587.59,719.848 587.5,722.5C 586.076,720.485 585.41,718.152 585.5,715.5 Z"/></g>
<g><path style="opacity:1" fill="#5e7ba9" d="M 281.5,737.5 C 282.913,740.219 283.58,743.219 283.5,746.5C 282.087,743.781 281.42,740.781 281.5,737.5 Z"/></g>
<g><path style="opacity:1" fill="#053592" d="M 431.5,794.5 C 421.506,795.167 411.339,795.5 401,795.5C 390.477,795.499 380.311,794.832 370.5,793.5C 385.781,771.712 401.281,750.046 417,728.5C 422.583,750.33 427.416,772.33 431.5,794.5 Z"/></g>
<g><path style="opacity:1" fill="#093686" d="M 763.5,742.5 C 762.296,747.156 762.296,751.823 763.5,756.5C 764.833,756.5 766.167,756.5 767.5,756.5C 767.5,757.5 767.5,758.5 767.5,759.5C 763.838,760.363 761.672,759.03 761,755.5C 760.506,757.134 760.34,758.801 760.5,760.5C 786.532,760.806 812.532,760.473 838.5,759.5C 838.5,761.167 838.5,762.833 838.5,764.5C 837.167,764.5 835.833,764.5 834.5,764.5C 834.5,763.5 834.5,762.5 834.5,761.5C 808.995,761.831 783.661,761.498 758.5,760.5C 760.174,754.385 761.84,748.385 763.5,742.5 Z"/></g>
<g><path style="opacity:1" fill="#a5b8dd" d="M 758.5,760.5 C 783.661,761.498 808.995,761.831 834.5,761.5C 834.5,762.5 834.5,763.5 834.5,764.5C 834.167,764.5 833.833,764.5 833.5,764.5C 808.513,762.838 783.18,761.838 757.5,761.5C 757.624,760.893 757.957,760.56 758.5,760.5 Z"/></g>
<g><path style="opacity:1" fill="#88a0d7" d="M 869.5,760.5 C 870.913,763.219 871.58,766.219 871.5,769.5C 870.087,766.781 869.42,763.781 869.5,760.5 Z"/></g>
<g><path style="opacity:1" fill="#143371" d="M 370.5,793.5 C 380.311,794.832 390.477,795.499 401,795.5C 411.339,795.5 421.506,795.167 431.5,794.5C 432.043,794.56 432.376,794.893 432.5,795.5C 411.167,796.833 389.833,796.833 368.5,795.5C 368.855,794.478 369.522,793.811 370.5,793.5 Z"/></g>
<g><path style="opacity:1" fill="#f3f7fa" d="M 863.5,676.5 C 878.833,676.5 894.167,676.5 909.5,676.5C 909.5,677.833 909.5,679.167 909.5,680.5C 909.42,683.781 910.087,686.781 911.5,689.5C 911.833,692.167 912.167,694.833 912.5,697.5C 912.42,700.781 913.087,703.781 914.5,706.5C 918.493,727.113 922.16,747.78 925.5,768.5C 925.42,771.781 926.087,774.781 927.5,777.5C 929.502,789.512 931.669,801.512 934,813.5C 965.5,768 997,722.5 1028.5,677C 1049.17,676.167 1069.84,676.334 1090.5,677.5C 1100.53,723.181 1110.69,768.847 1121,814.5C 1130.53,779.721 1139.37,744.721 1147.5,709.5C 1148.92,707.485 1149.59,705.152 1149.5,702.5C 1151.06,693.501 1153.4,684.834 1156.5,676.5C 1175.83,676.5 1195.17,676.5 1214.5,676.5C 1214.23,678.099 1214.57,679.432 1215.5,680.5C 1216.54,686.783 1218.2,692.783 1220.5,698.5C 1222.11,710.185 1224.77,721.518 1228.5,732.5C 1235.51,761.351 1243.01,790.018 1251,818.5C 1286.72,771.623 1322.22,724.623 1357.5,677.5C 1377.42,676.513 1397.42,676.179 1417.5,676.5C 1400.61,745.515 1383.61,814.515 1366.5,883.5C 1350.17,883.5 1333.83,883.5 1317.5,883.5C 1317.5,882.5 1317.5,881.5 1317.5,880.5C 1326.04,846.541 1334.54,812.541 1343,778.5C 1343.67,775.479 1344.01,772.479 1344,769.5C 1316.53,807.6 1288.7,845.433 1260.5,883C 1243.26,883.825 1226.09,883.658 1209,882.5C 1200,845.158 1191,807.824 1182,770.5C 1172.52,807.102 1163.35,843.769 1154.5,880.5C 1153.6,881.209 1153.26,882.209 1153.5,883.5C 1129.17,883.5 1104.83,883.5 1080.5,883.5C 1078.14,868.744 1075.48,854.077 1072.5,839.5C 1040.66,838.17 1008.66,838.17 976.5,839.5C 974.962,841.243 973.962,843.243 973.5,845.5C 964.154,857.668 955.154,870.168 946.5,883C 928.5,883.667 910.5,883.667 892.5,883C 891.135,878.572 890.135,874.072 889.5,869.5C 888.482,860.908 886.816,852.575 884.5,844.5C 880.094,819.516 875.761,794.516 871.5,769.5C 871.58,766.219 870.913,763.219 869.5,760.5C 866.501,743.835 863.501,727.168 860.5,710.5C 844.474,707.259 828.474,703.925 812.5,700.5C 814.427,694.641 815.76,688.641 816.5,682.5C 817.738,680.786 818.405,678.786 818.5,676.5C 833.5,676.5 848.5,676.5 863.5,676.5 Z"/></g>
<g><path style="opacity:1" fill="#8297c4" d="M 869.5,724.5 C 870.913,727.219 871.58,730.219 871.5,733.5C 870.087,730.781 869.42,727.781 869.5,724.5 Z"/></g>
<g><path style="opacity:1" fill="#033592" d="M 915.5,750.5 C 915.42,753.781 916.087,756.781 917.5,759.5C 920.167,774.833 922.833,790.167 925.5,805.5C 925.42,808.781 926.087,811.781 927.5,814.5C 928.497,819.824 929.497,825.157 930.5,830.5C 964.37,781.798 998.037,732.965 1031.5,684C 1049.5,683.5 1067.5,683.333 1085.5,683.5C 1096.63,737.037 1108.46,790.371 1121,843.5C 1134.48,790.234 1147.65,736.901 1160.5,683.5C 1176.83,683.5 1193.17,683.5 1209.5,683.5C 1221.41,733.74 1234.25,783.74 1248,833.5C 1286.03,783.315 1324.2,733.315 1362.5,683.5C 1377.83,683.5 1393.17,683.5 1408.5,683.5C 1408.5,684.5 1408.5,685.5 1408.5,686.5C 1393.18,746.733 1378.18,807.066 1363.5,867.5C 1362.08,869.515 1361.41,871.848 1361.5,874.5C 1361.5,875.5 1361.5,876.5 1361.5,877.5C 1349.16,877.667 1336.83,877.5 1324.5,877C 1336.63,830.955 1348.13,784.789 1359,738.5C 1324.89,784.433 1291.05,830.433 1257.5,876.5C 1243.18,877.499 1228.85,877.833 1214.5,877.5C 1203.57,832.548 1192.74,787.548 1182,742.5C 1170.93,787.208 1159.76,831.875 1148.5,876.5C 1127.83,876.5 1107.17,876.5 1086.5,876.5C 1086.74,875.209 1086.4,874.209 1085.5,873.5C 1083.3,860.186 1081.13,846.853 1079,833.5C 1078.58,832.244 1077.75,831.577 1076.5,831.5C 1042.17,831.333 1007.83,831.5 973.5,832C 972.748,832.671 972.414,833.504 972.5,834.5C 962.362,848.086 952.696,862.086 943.5,876.5C 928.181,877.499 912.848,877.833 897.5,877.5C 895.243,865.882 893.243,854.215 891.5,842.5C 891.58,839.219 890.913,836.219 889.5,833.5C 883.5,800.172 877.5,766.839 871.5,733.5C 871.58,730.219 870.913,727.219 869.5,724.5C 868.267,718.908 867.434,713.241 867,707.5C 866.612,706.572 865.945,705.905 865,705.5C 850.274,701.646 835.441,698.313 820.5,695.5C 820.674,691.307 821.674,687.307 823.5,683.5C 850.138,683.345 876.805,683.345 903.5,683.5C 908.227,705.709 912.227,728.042 915.5,750.5 Z"/></g>
<g><path style="opacity:1" fill="#7f96c0" d="M 925.5,768.5 C 926.913,771.219 927.58,774.219 927.5,777.5C 926.087,774.781 925.42,771.781 925.5,768.5 Z"/></g>
<g><path style="opacity:1" fill="#6881af" d="M 1061.5,753.5 C 1062.92,755.515 1063.59,757.848 1063.5,760.5C 1062.08,758.485 1061.41,756.152 1061.5,753.5 Z"/></g>
<g><path style="opacity:1" fill="#738fbd" d="M 915.5,750.5 C 916.913,753.219 917.58,756.219 917.5,759.5C 916.087,756.781 915.42,753.781 915.5,750.5 Z"/></g>
<g><path style="opacity:1" fill="#f4f8fa" d="M 1061.5,753.5 C 1061.41,756.152 1062.08,758.485 1063.5,760.5C 1066.16,773.16 1068.83,785.827 1071.5,798.5C 1046.67,799.498 1021.67,799.831 996.5,799.5C 1015.9,773.054 1035.06,746.387 1054,719.5C 1056.82,730.772 1059.32,742.106 1061.5,753.5 Z"/></g>
<g><path style="opacity:1" fill="#143c81" d="M 1062.5,790.5 C 1063.4,791.209 1063.74,792.209 1063.5,793.5C 1045.49,793.833 1027.49,793.5 1009.5,792.5C 1009.62,791.893 1009.96,791.56 1010.5,791.5C 1018.99,792.166 1027.66,792.5 1036.5,792.5C 1045.53,792.498 1054.19,791.831 1062.5,790.5 Z"/></g>
<g><path style="opacity:1" fill="#053693" d="M 1062.5,790.5 C 1054.19,791.831 1045.53,792.498 1036.5,792.5C 1027.66,792.5 1018.99,792.166 1010.5,791.5C 1023.75,772.686 1037.25,754.019 1051,735.5C 1055,753.828 1058.83,772.161 1062.5,790.5 Z"/></g>
<g><path style="opacity:1" fill="#284491" d="M 1220.5,698.5 C 1221.74,701.961 1223.41,705.294 1225.5,708.5C 1224.94,709.939 1224.6,711.439 1224.5,713C 1226.57,719.37 1227.9,725.87 1228.5,732.5C 1224.77,721.518 1222.11,710.185 1220.5,698.5 Z"/></g>
<g><path style="opacity:1" fill="#8aa2ce" d="M 1149.5,702.5 C 1149.59,705.152 1148.92,707.485 1147.5,709.5C 1147.41,706.848 1148.08,704.515 1149.5,702.5 Z"/></g>
<g><path style="opacity:1" fill="#849cce" d="M 912.5,697.5 C 913.913,700.219 914.58,703.219 914.5,706.5C 913.087,703.781 912.42,700.781 912.5,697.5 Z"/></g>
<g><path style="opacity:1" fill="#7f9bc5" d="M 909.5,680.5 C 910.913,683.219 911.58,686.219 911.5,689.5C 910.087,686.781 909.42,683.781 909.5,680.5 Z"/></g>
<g><path style="opacity:1" fill="#a0b2da" d="M 1362.5,683.5 C 1377.99,682.504 1393.66,682.17 1409.5,682.5C 1409.77,684.099 1409.43,685.432 1408.5,686.5C 1408.5,685.5 1408.5,684.5 1408.5,683.5C 1393.17,683.5 1377.83,683.5 1362.5,683.5 Z"/></g>
<g><path style="opacity:1" fill="#4876c5" d="M 1071.5,798.5 C 1072.04,798.56 1072.38,798.893 1072.5,799.5C 1047,800.829 1021.67,800.829 996.5,799.5C 1021.67,799.831 1046.67,799.498 1071.5,798.5 Z"/></g>
<g><path style="opacity:1" fill="#153c88" d="M 815.5,805.5 C 794.098,806.172 772.598,806.839 751,807.5C 749.174,806.159 748.007,806.659 747.5,809C 750.91,811.25 751.41,814.083 749,817.5C 747.199,812.183 745.699,812.183 744.5,817.5C 744.583,813.42 745.583,809.587 747.5,806C 770.164,805.5 792.831,805.333 815.5,805.5 Z"/></g>
<g><path style="opacity:1" fill="#7591cf" d="M 925.5,805.5 C 926.913,808.219 927.58,811.219 927.5,814.5C 926.087,811.781 925.42,808.781 925.5,805.5 Z"/></g>
<g><path style="opacity:1" fill="#6986bf" d="M 294.5,809.5 C 295.768,811.905 296.435,814.572 296.5,817.5C 294.96,815.162 294.294,812.495 294.5,809.5 Z"/></g>
<g><path style="opacity:1" fill="#89a2c6" d="M 611.5,818.5 C 612.924,820.515 613.59,822.848 613.5,825.5C 612.076,823.485 611.41,821.152 611.5,818.5 Z"/></g>
<g><path style="opacity:1" fill="#d6dee2" d="M 1076.5,831.5 C 1042.67,832.332 1008.67,832.832 974.5,833C 975.517,834.049 975.684,835.216 975,836.5C 974.583,835.244 973.75,834.577 972.5,834.5C 972.414,833.504 972.748,832.671 973.5,832C 1007.83,831.5 1042.17,831.333 1076.5,831.5 Z"/></g>
<g><path style="opacity:1" fill="#1a3c7d" d="M 1072.5,839.5 C 1040.83,839.167 1009.16,839.5 977.5,840.5C 976.332,841.906 976.665,843.072 978.5,844C 976.753,844.352 975.086,844.852 973.5,845.5C 973.962,843.243 974.962,841.243 976.5,839.5C 1008.66,838.17 1040.66,838.17 1072.5,839.5 Z"/></g>
<g><path style="opacity:1" fill="#788ab8" d="M 889.5,833.5 C 890.913,836.219 891.58,839.219 891.5,842.5C 890.087,839.781 889.42,836.781 889.5,833.5 Z"/></g>
<g><path style="opacity:1" fill="#2b4989" d="M 884.5,844.5 C 886.816,852.575 888.482,860.908 889.5,869.5C 888.4,867.723 887.566,865.723 887,863.5C 886.558,857.065 885.725,850.732 884.5,844.5 Z"/></g>
<g><path style="opacity:1" fill="#5070a1" d="M 1363.5,867.5 C 1363.59,870.152 1362.92,872.485 1361.5,874.5C 1361.41,871.848 1362.08,869.515 1363.5,867.5 Z"/></g>
<g><path style="opacity:1" fill="#5475b6" d="M 1085.5,873.5 C 1086.4,874.209 1086.74,875.209 1086.5,876.5C 1107.17,876.5 1127.83,876.5 1148.5,876.5C 1127.67,877.497 1106.67,877.831 1085.5,877.5C 1085.5,876.167 1085.5,874.833 1085.5,873.5 Z"/></g>
<g><path style="opacity:1" fill="#4c699f" d="M 575.5,876.5 C 576.434,877.568 576.768,878.901 576.5,880.5C 592.167,880.5 607.833,880.5 623.5,880.5C 607.675,881.496 591.675,881.83 575.5,881.5C 575.5,879.833 575.5,878.167 575.5,876.5 Z"/></g>
<g><path style="opacity:1" fill="#4f6da3" d="M 686.5,877.5 C 686.5,878.5 686.5,879.5 686.5,880.5C 700.5,880.5 714.5,880.5 728.5,880.5C 714.343,881.496 700.01,881.829 685.5,881.5C 685.232,879.901 685.566,878.568 686.5,877.5 Z"/></g>
<g><path style="opacity:1" fill="#6b91c5" d="M 1154.5,880.5 C 1154.5,881.833 1154.5,883.167 1154.5,884.5C 1129.66,884.831 1104.99,884.498 1080.5,883.5C 1104.83,883.5 1129.17,883.5 1153.5,883.5C 1153.26,882.209 1153.6,881.209 1154.5,880.5 Z"/></g>
<g><path style="opacity:1" fill="#698ec4" d="M 1317.5,880.5 C 1317.5,881.5 1317.5,882.5 1317.5,883.5C 1333.83,883.5 1350.17,883.5 1366.5,883.5C 1350.01,884.497 1333.34,884.83 1316.5,884.5C 1316.23,882.901 1316.57,881.568 1317.5,880.5 Z"/></g>
<g><path style="opacity:1" fill="#013497" d="M 191.5,1557.5 C 596.5,1558.83 1001.5,1558.83 1406.5,1557.5C 1407.83,1558.5 1407.83,1559.5 1406.5,1560.5C 1001.78,1559.17 597.113,1559.17 192.5,1560.5C 191.614,1559.68 191.281,1558.68 191.5,1557.5 Z"/></g>
<g><path style="opacity:1" fill="#003698" d="M 204.5,1562.5 C 602.542,1562 1000.54,1562.5 1398.5,1564C 999.167,1564.67 599.833,1564.67 200.5,1564C 202.058,1563.79 203.391,1563.29 204.5,1562.5 Z"/></g>
</svg>

<svg version="1.1" width="1600" height="1600" style="shape-rendering:geometricPrecision;text-rendering:geometricPrecision;image-rendering:optimizeQuality;fill-rule:evenodd;clip-rule:evenodd" id="svg53" xmlns="http://www.w3.org/2000/svg"><g id="g54"><g id="g3" transform="translate(2.54 -4.69)"><path fill="#003592" d="M185.5 33.5c405.5-.33 810.83 0 1216 1-402-.17-804 0-1206 .5.53.7 1.2 1.2 2 1.5a64.3 64.3 0 0 0 6.5-1 89159.06 89159.06 0 0 0 1191 0c2.74.78 5.41 1.12 8 1l2.5-.5a3.3 3.3 0 0 1-2-1.5l8-1c58.66 6.16 103.16 34.5 133.5 85a185 185 0 0 1 21 68c.67 408.33.67 816.67 0 1225-7.94 63.73-40.44 110.23-97.5 139.5a160.97 160.97 0 0 1-58 15c-408 .67-816 .67-1224 0-48.28-5.52-87.78-27.02-118.5-64.5a165.17 165.17 0 0 1-33.5-82c-1-411.33-1.32-822.66-1-1234v-6a26.75 26.75 0 0 0 2-10c10.86-49.54 37.86-87.7 81-114.5a164.74 164.74 0 0 1 69-21.5z" id="path3" style="opacity:1"/></g><g id="g53" transform="translate(2236.55 -116.28)"><g id="g18" transform="translate(-2236.81 119.87)" style="fill:#fff;fill-opacity:1"><path id="path18" style="opacity:1;fill:#fff;fill-opacity:1" d="M431.5 794.5c-10 .67-20.16 1-30.5 1-10.52 0-20.69-.67-30.5-2a4283.68 4283.68 0 0 1 46.5-65 990.56 990.56 0 0 1 14.5 66zm-150-57c-.08 3.28.59 6.28 2 9 3.3 21.06 6.97 42.06 11 63-.2 3 .46 5.66 2 8-.16 1.7 0 3.37.5 5 33-47.33 65.5-95 97.5-143 19.34-.33 38.68 0 58 1a688.83 688.83 0 0 0 6 25 5172.03 5172.03 0 0 0 27.5 124 5321.7 5321.7 0 0 1 37.5-149 702.8 702.8 0 0 1 53-1l9 36c-.09 2.65.58 4.99 2 7l24 96c-.09 2.65.58 4.99 2 7 .31 1.24.81 1.24 1.5 0 36.3-48.47 72.8-96.8 109.5-145 18.03-.65 35.7.01 53 2a2987.48 2987.48 0 0 1-14 60 2130.5 2130.5 0 0 0-5 18c-.54.06-.88.4-1 1 25.68.34 51.01 1.34 76 3-3.27 13.3-6.43 26.63-9.5 40a19.93 19.93 0 0 1-8.5 1c-22.67-.17-45.34 0-68 .5a25.15 25.15 0 0 0-3 11.5 1668.65 1668.65 0 0 0-16 63h-42v-3c10.16-40.97 20-81.97 29.5-123-30.66 42.16-61.5 84.16-92.5 126h-47a4.61 4.61 0 0 0-1-4c-9.2-39.75-18.7-79.42-28.5-119a8359.47 8359.47 0 0 0-30.5 123h-69c-2.4-14.98-4.74-29.98-7-45-33.34-.17-66.67 0-100 .5a1597.94 1597.94 0 0 0-31 44c-16.68.83-33.34.67-50-.5a10345.68 10345.68 0 0 0-32-171 349.01 349.01 0 0 0-46-10 718.6 718.6 0 0 1 4-20c28.66.64 57.33.98 86 1a889.22 889.22 0 0 0 10 58z"/></g><g id="g31" transform="translate(-2016.2 -624.36)" style="fill:none;fill-opacity:1;stroke:#fff;stroke-width:4;stroke-dasharray:none;stroke-opacity:1"><path id="path31" style="opacity:1;fill:none;fill-opacity:1;stroke:#fff;stroke-width:4;stroke-dasharray:none;stroke-opacity:1" d="M832.02 1538.86a164.3 164.3 0 0 1-26 2c-8.84 0-17.51-.34-26-1a2754.46 2754.46 0 0 1 40.5-56c4 18.32 7.83 36.66 11.5 55zm-199-114h46v4c-.08 3.28.59 6.28 2 9l1 8c-.08 3.28.59 6.28 2 9 4 20.6 7.66 41.28 11 62-.08 3.28.59 6.28 2 9 2 12 4.17 24 6.5 36l94.5-136.5a641.4 641.4 0 0 1 62 .5 23649.6 23649.6 0 0 0 30.5 137 2667.5 2667.5 0 0 0 26.5-105 11.16 11.16 0 0 0 2-7c1.56-9 3.9-17.67 7-26h58a4.62 4.62 0 0 0 1 4 85.44 85.44 0 0 0 5 18 183.21 183.21 0 0 0 8 34 2529.37 2529.37 0 0 0 22.5 86 20841.9 20841.9 0 0 0 106.5-141 916.19 916.19 0 0 1 60-1 68617.62 68617.62 0 0 1-51 207h-49v-3c8.54-33.96 17.04-67.96 25.5-102a40.84 40.84 0 0 0 1-9 7322.21 7322.21 0 0 1-83.5 113.5c-17.24.82-34.41.65-51.5-.5l-27-112a6670.27 6670.27 0 0 0-27.5 110c-.9.7-1.24 1.7-1 3h-73a1038.5 1038.5 0 0 0-8-44 1155.38 1155.38 0 0 0-96 0 12.8 12.8 0 0 0-3 6 749.73 749.73 0 0 0-27 37.5c-18 .66-36 .66-54 0a85.84 85.84 0 0 1-3-13.5 157.92 157.92 0 0 0-5-25c-4.4-24.99-8.74-49.99-13-75 .08-3.29-.59-6.29-2-9l-9-50a4201.26 4201.26 0 0 1-48-10 93.13 93.13 0 0 0 4-18 10.77 10.77 0 0 0 2-6h45z"/></g></g></g></svg>
